public/images/slider-next.svg

<svg viewBox="0 0 31 31" fill="none" xmlns="http://www.w3.org/2000/svg">
<path fill-rule="evenodd" clip-rule="evenodd" d="M15 30.8516C6.71573 30.8516 0 24.1358 0 15.8516C0 7.56729 6.71573 0.851562 15 0.851562C23.2843 0.851562 30 7.56729 30 15.8516C30 24.1358 23.2843 30.8516 15 30.8516ZM15 28.1243C21.778 28.1243 27.2727 22.6296 27.2727 15.8515C27.2727 9.0735 21.778 3.57881 15 3.57881C8.22192 3.57881 2.72724 9.0735 2.72724 15.8515C2.72724 22.6296 8.22192 28.1243 15 28.1243ZM13.237 9.43284L11.3085 11.3613L15.7988 15.8516L11.3085 20.3419L13.237 22.2704L19.6558 15.8516L13.237 9.43284Z" fill="black"/>
</svg>

<svg viewBox="0 0 31 31" fill="none" xmlns="http://www.w3.org/2000/svg"><path fill-rule="evenodd" clip-rule="evenodd" d="M15 30.852c-8.284 0-15-6.716-15-15 0-8.285 6.716-15 15-15 8.284 0 15 6.715 15 15 0 8.284-6.716 15-15 15zm0-2.728c6.778 0 12.273-5.494 12.273-12.272 0-6.779-5.495-12.273-12.273-12.273S2.727 9.073 2.727 15.85c0 6.779 5.495 12.273 12.273 12.273zM13.237 9.433l-1.928 1.928 4.49 4.49-4.49 4.49 1.928 1.93 6.419-6.42-6.419-6.418z" fill="#000"/></svg>
